frontend/svgs/biz006.svg

<?xml version="1.0" encoding="UTF-8"?> <svg width="100px" height="100px" viewBox="0 0 100 100" version="1.1" xmlns="http://www.w3.org/2000/svg" xmlns:xlink="http://www.w3.org/1999/xlink"> <g id="5.-Call-24-hours" stroke="none" stroke-width="1" fill="none" fill-rule="evenodd" stroke-linecap="round" stroke-linejoin="round"> <path d="M30.3015385,39.3611238 C31.6274667,36.3295817 30.9758342,31.8367236 28.8313928,29.3087341 L19.2283701,17.988145 C17.0905028,15.4679056 13.474406,15.326691 11.1623968,17.6618203 L4.54710504,24.3432649 C0.477569598,28.4534957 2.01434952,36.3219577 4.12423845,41.6780844 C4.12423845,41.6780844 6.79800648,50.6593418 27.6500812,71.7199372 C48.5021558,92.7805326 57.3944899,95.4810383 57.3944899,95.4810383 C62.6975856,97.6120261 70.488142,99.1641739 74.5576774,95.0539431 L81.1729692,88.3724984 C83.4849784,86.0373691 83.345162,82.3851113 80.8498754,80.2258654 L69.6413714,70.5268125 C67.1384115,68.3609266 62.6900371,67.7027778 59.6885102,69.0419653 C59.6885102,69.0419653 51.5364806,73.064709 49.2147991,70.7198107 L38.9275522,60.3296915 L28.2987988,49.5946503 C25.9771173,47.249752 30.3015385,39.3611238 30.3015385,39.3611238 Z" id="Layer-1" stroke="#54A0FF" stroke-width="4" fill="#54A0FF"></path> <path d="M73,52 C86.8071187,52 98,40.8071187 98,27 C98,13.1928813 86.8071187,2 73,2 C59.1928813,2 48,13.1928813 48,27 C48,40.8071187 59.1928813,52 73,52 Z" id="Layer-2" stroke="#A4B8CE" stroke-width="4" fill="#A4B8CE"></path> <path d="M71,36 L59.1052364,36 L64.9984749,30.3074671 C68.1029487,27.329429 69.6814948,25.2737921 69.6814948,22.954612 C69.6814948,20.2401171 67.9977123,18 64.6038384,18 C61.63091,18 59.3683274,20.1346999 59.0263091,23.4289898 L59,23.6925329" id="Layer-3" stroke="#FFFFFF" stroke-width="4"></path> <polyline id="Layer-4" stroke="#FFFFFF" stroke-width="4" points="84.474882 36 84.4748822 30.5066667 84.4748822 30.5066667 84.4748822 18 84.0111505 18 74 30.64 74 31.0666667 87 31.0666669"></polyline> </g> </svg>

<svg width="100" height="100" xmlns="http://www.w3.org/2000/svg"><g fill="none" fill-rule="evenodd" stroke-linecap="round" stroke-linejoin="round" stroke-width="4"><path d="M30.302 39.361c1.325-3.031.674-7.524-1.47-10.052l-9.604-11.32c-2.137-2.521-5.754-2.662-8.066-.327l-6.615 6.681c-4.07 4.11-2.533 11.979-.423 17.335 0 0 2.674 8.981 23.526 30.042C48.502 92.78 57.394 95.48 57.394 95.48c5.304 2.131 13.094 3.683 17.164-.427l6.615-6.682c2.312-2.335 2.172-5.987-.323-8.146l-11.209-9.7c-2.503-2.165-6.951-2.823-9.952-1.484 0 0-8.153 4.023-10.474 1.678L38.928 60.33l-10.63-10.735c-2.32-2.345 2.004-10.234 2.004-10.234z" stroke="#54A0FF" fill="#54A0FF"/><path d="M73 52c13.807 0 25-11.193 25-25S86.807 2 73 2 48 13.193 48 27s11.193 25 25 25z" stroke="#A4B8CE" fill="#A4B8CE"/><path d="M71 36H59.105l5.893-5.693c3.105-2.978 4.683-5.033 4.683-7.352 0-2.715-1.683-4.955-5.077-4.955-2.973 0-5.236 2.135-5.578 5.429l-.026.264M84.475 36v-5.493h0V18h-.464L74 30.64v.427h13" stroke="#FFF"/></g></svg>
